X: 22645
T: Laird Of Drumblair, The
R: strathspey
M: 4/4
K: Amajor
|:A2c>A E>Ac<A|a2g>a f>ae>c|(3def (3efg (3aed (3cBA|(3Bcd (3cBA (3GFE (3dcB|
A2c>A E>Ac>e|a2g>a f>ae>c|(3def (3efg (3aed (3cBA|1 (3GFE (3dcB A3 E:|2 (3GFE (3dcB A2 e>g||
|:a2e>a c>aA>a|c<Ae>A a>ec>e|b2f>b d>bB>b|d<Bf>B b<Bf>b|
a2e>a c>aA>a|c<Ae>A a>ec>e|(3def (3efg (3aed (3cBA|1 (3GFE (3dcB A2 e>g:|2 (3GFE (3dcB A3E||

